X: 22238
T: La Gallega
R: jig
M: 6/8
K: Edorian
|:E3 B BA|AB BA GB|A2 {B}AG FG|A2 F2 D2|
[1 E3 B BA|AB BA GE|F2 d3 e|d2 F2 D2:|
[2 E3 F GA|AB B2 ef/e/|d2 c2 A2|A3 A Bd||
e2 ef ed|Bd ef g2|f2 d2 {a}gf|dA Bd gf|
e2 ef ed|ef g2 gg|f4 {a}gf|d3 A Bd|
e2 ef ed|Bc d2 BG|GA A2 AB|F3 E ED|
E3 B BA|AB B2 eg|f2 d2 B2|A6||

